X:1
T:The Devil's Own Shot -- Jig
R:jig
B:Ryan's Mammoth Collection
Z:Contributed by Ray Davies. ray:davies.freeserve.co.uk
M:6/8
L:1/8
K:D
vd2A Bcd|"4"edc d2"0"e|fed fag|f2e d2A|
d2A Bcd|"4"edc d2"0"e|fed fag|f2e d2z::
vdef agf|gef g3 |fag fed|gfg efg|
def agf|gef (g2.a)|bag fed|ABc d2z:|
